X:249
T:Walk Along John
M:C|
L:1/8
K:G
|:"G"B3DE2D2 | G2B2 A2B2 | "G"B3D E2D2 | "D7"dBAG "G"AG3 |
"G"B3DE2D2 | G2B2 A2B2 | "G"B3DE2D2 | "D7"dBAG "G"AG3 :|
|:"G"GABd e2d2 | "C"dBde g4 | "G"GABd e2d2 | "D7"dBA2 "G"G4 |
"G"GABd e2d2 | "C"dBde g3a | "Em"b2a2 g2e2 | "D7"dBA2 "G"G4 :|
W:Alternate progression A part G|G|Bm|Bm|C|C|D|D  
W:Alternate progression Bpart G|C|G|D|Em|C|Am|D7G
